X: 1325
T: An Orkney Christmas
R: reel
M: 4/4
K: Dmajor
|:d3d- defa|edBA BdDE-|E2ED EFAF|EDB,D A,4|
d3d- defa|edBA F3E|EDEF AFED|1 DEFA AFED:|2 DEFA AFAd||
|:effe faAB-|Bgfe fdBA|EFAB dfe2-|edea f/g/aed|
effe faAB-|Bgfe fdBA|1 EFAF ABAB|dcde f/g/aed:|2 EFED EFAF|EDEF D4||

